packages/svg/trophy-base.svg

<svg width="1024" height="1024" viewBox="0 0 1024 1024" fill="none" xmlns="http://www.w3.org/2000/svg">
<path d="M758.4 73.6C752 67.2 745.6 64 736 64H288C278.4 64 272 67.2 265.6 73.6C259.2 80 256 86.4 256 96V384C259.2 457.6 281.6 518.4 329.6 566.4C377.6 614.4 438.4 640 512 640C585.6 636.8 646.4 614.4 694.4 566.4C742.4 518.4 768 457.6 768 384V96C768 86.4 764.8 80 758.4 73.6ZM704 384C704 438.4 684.8 483.2 646.4 518.4C608 553.6 566.4 576 512 576C457.6 576 412.8 556.8 377.6 518.4C342.4 480 320 438.4 320 384V128H704V384Z" fill="#303133"/>
<path d="M918.399 201.6C911.999 195.2 905.599 192 895.999 192H703.999V512C767.999 512 819.199 489.6 863.999 448C902.399 409.6 924.799 336 927.999 224C927.999 217.6 924.799 208 918.399 201.6ZM819.199 403.2C803.199 419.2 787.199 428.8 767.999 438.4V256H860.799C854.399 332.8 841.599 380.8 819.199 403.2Z" fill="#303133"/>
<path d="M128 192C118.4 192 112 195.2 105.6 201.6C99.2 208 96 217.6 96 224C99.2 332.8 121.6 409.6 160 448C201.6 489.6 256 512 320 512V192H128ZM256 256V438.4C236.8 432 220.8 419.2 204.8 403.2C182.4 380.8 169.6 332.8 163.2 256H256Z" fill="#303133"/>
<path d="M544 576H480V768H544V576Z" fill="#303133"/>
<path d="M255.999 896H767.999C777.599 896 783.999 899.2 790.399 905.6C796.799 912 799.999 918.4 799.999 928C799.999 937.6 796.799 944 790.399 950.4C783.999 956.8 777.599 960 767.999 960H255.999C246.399 960 239.999 956.8 233.599 950.4C227.199 944 223.999 937.6 223.999 928C223.999 918.4 227.199 912 233.599 905.6C239.999 899.2 246.399 896 255.999 896Z" fill="#303133"/>
<path d="M384 768H640C649.6 768 656 771.2 662.4 777.6C668.8 784 672 790.4 672 800C672 809.6 668.8 816 662.4 822.4C656 828.8 649.6 832 640 832H384C374.4 832 368 828.8 361.6 822.4C355.2 816 352 809.6 352 800C352 790.4 355.2 784 361.6 777.6C368 771.2 374.4 768 384 768Z" fill="#303133"/>
</svg>

<svg width="1024" height="1024" fill="none" xmlns="http://www.w3.org/2000/svg"><path d="M758.4 73.6C752 67.2 745.6 64 736 64H288c-9.6 0-16 3.2-22.4 9.6C259.2 80 256 86.4 256 96v288c3.2 73.6 25.6 134.4 73.6 182.4 48 48 108.8 73.6 182.4 73.6 73.6-3.2 134.4-25.6 182.4-73.6 48-48 73.6-108.8 73.6-182.4V96c0-9.6-3.2-16-9.6-22.4ZM704 384c0 54.4-19.2 99.2-57.6 134.4C608 553.6 566.4 576 512 576c-54.4 0-99.2-19.2-134.4-57.6C342.4 480 320 438.4 320 384V128h384v256Z" fill="#303133"/><path d="M918.399 201.6c-6.4-6.4-12.8-9.6-22.4-9.6h-192v320c64 0 115.2-22.4 160-64 38.4-38.4 60.8-112 64-224 0-6.4-3.2-16-9.6-22.4Zm-99.2 201.6c-16 16-32 25.6-51.2 35.2V256h92.8c-6.4 76.8-19.2 124.8-41.6 147.2ZM128 192c-9.6 0-16 3.2-22.4 9.6-6.4 6.4-9.6 16-9.6 22.4 3.2 108.8 25.6 185.6 64 224 41.6 41.6 96 64 160 64V192H128Zm128 64v182.4c-19.2-6.4-35.2-19.2-51.2-35.2-22.4-22.4-35.2-70.4-41.6-147.2H256ZM544 576h-64v192h64V576ZM255.999 896h512c9.6 0 16 3.2 22.4 9.6 6.4 6.4 9.6 12.8 9.6 22.4 0 9.6-3.2 16-9.6 22.4-6.4 6.4-12.8 9.6-22.4 9.6h-512c-9.6 0-16-3.2-22.4-9.6-6.4-6.4-9.6-12.8-9.6-22.4 0-9.6 3.2-16 9.6-22.4 6.4-6.4 12.8-9.6 22.4-9.6ZM384 768h256c9.6 0 16 3.2 22.4 9.6 6.4 6.4 9.6 12.8 9.6 22.4 0 9.6-3.2 16-9.6 22.4-6.4 6.4-12.8 9.6-22.4 9.6H384c-9.6 0-16-3.2-22.4-9.6-6.4-6.4-9.6-12.8-9.6-22.4 0-9.6 3.2-16 9.6-22.4 6.4-6.4 12.8-9.6 22.4-9.6Z" fill="#303133"/></svg>
